flaticon/transportation/motorbike-2.svg

<svg xmlns="http://www.w3.org/2000/svg" width="32" height="32" viewBox="0 0 24 24">
    <path d="M 21.046875 10.511719 C 21.042969 10.507812 21.039062 10.507812 21.039062 10.503906 L 21.039062 5.925781 L 12.132812 5.925781 L 12.132812 9.097656 L 14.332031 9.097656 L 14.332031 10.40625 L 13.785156 10.40625 C 13.644531 10.40625 13.507812 10.464844 13.414062 10.570312 C 13.316406 10.671875 13.265625 10.8125 13.277344 10.953125 C 13.367188 12.226562 13.183594 14.140625 12.613281 14.382812 L 9.367188 14.382812 C 9.089844 13.242188 8.421875 9.539062 10.378906 6.238281 C 10.484375 6.058594 10.472656 5.832031 10.34375 5.664062 C 10.28125 5.585938 8.789062 3.699219 6.21875 3.941406 C 5.957031 3.964844 5.757812 4.183594 5.757812 4.449219 L 5.757812 7.855469 C 5.757812 8.140625 5.988281 8.367188 6.269531 8.367188 L 6.972656 8.367188 L 5.355469 11.28125 L 4.007812 11.28125 C 3.566406 11.28125 3.183594 11.546875 3.023438 11.957031 C 2.945312 12.164062 2.933594 12.386719 2.988281 12.589844 C 1.28125 12.960938 0 14.480469 0 16.292969 C 0 18.382812 1.699219 20.082031 3.789062 20.082031 C 5.667969 20.082031 7.230469 18.707031 7.527344 16.910156 C 7.617188 16.984375 7.726562 17.023438 7.84375 17.023438 L 14.121094 17.023438 C 14.460938 18.761719 16 20.082031 17.839844 20.082031 C 19.679688 20.082031 21.214844 18.761719 21.558594 17.023438 L 23.488281 17.023438 C 23.769531 17.023438 24 16.792969 24 16.511719 C 24 16.359375 23.964844 12.734375 21.046875 10.511719 Z M 13.152344 8.074219 L 13.152344 6.949219 L 20.015625 6.949219 L 20.015625 10.40625 L 15.351562 10.40625 L 15.351562 8.074219 Z M 3.789062 19.058594 C 2.261719 19.058594 1.019531 17.820312 1.019531 16.292969 C 1.019531 14.765625 2.261719 13.523438 3.789062 13.523438 C 5.316406 13.523438 6.554688 14.765625 6.554688 16.292969 C 6.554688 17.820312 5.316406 19.058594 3.789062 19.058594 Z M 17.839844 19.058594 C 16.3125 19.058594 15.070312 17.820312 15.070312 16.292969 C 15.070312 14.765625 16.3125 13.523438 17.839844 13.523438 C 19.363281 13.523438 20.605469 14.765625 20.605469 16.292969 C 20.605469 17.820312 19.363281 19.058594 17.839844 19.058594 Z M 21.617188 16 C 21.464844 14.046875 19.828125 12.503906 17.839844 12.503906 C 15.847656 12.503906 14.210938 14.046875 14.0625 16 L 8.039062 16 L 7.496094 15.511719 C 7.152344 13.882812 5.761719 12.636719 4.058594 12.515625 L 3.851562 12.503906 C 3.847656 12.503906 3.839844 12.503906 3.835938 12.503906 L 4.007812 12.300781 L 5.65625 12.300781 C 5.84375 12.300781 6.011719 12.199219 6.101562 12.039062 L 8.289062 8.105469 C 8.460938 7.796875 8.246094 7.347656 7.84375 7.347656 L 6.777344 7.347656 L 6.777344 4.941406 C 8.046875 4.980469 8.925781 5.667969 9.3125 6.046875 C 6.996094 10.300781 8.429688 14.855469 8.492188 15.050781 C 8.5625 15.261719 8.757812 15.40625 8.976562 15.40625 C 8.976562 15.40625 12.78125 15.398438 12.820312 15.386719 C 14.21875 15.027344 14.347656 12.617188 14.320312 11.425781 L 20.558594 11.425781 C 22.359375 12.882812 22.820312 15.027344 22.9375 16 Z M 21.617188 16"/>
    <path d="M 17.851562 15.585938 L 18.546875 16.277344 L 17.824219 17 L 17.128906 16.304688 Z M 2.914062 16.304688 L 3.609375 17 L 4.332031 16.277344 L 3.636719 15.585938 Z M 2.914062 16.304688"/>
</svg>

<svg xmlns="http://www.w3.org/2000/svg" width="32" height="32" viewBox="0 0 24 24">
    <path d="M21.047 10.512c-.004-.004-.008-.004-.008-.008V5.926h-8.906v3.172h2.199v1.308h-.547a.497.497 0 0 0-.37.164.496.496 0 0 0-.138.383c.09 1.274-.093 3.188-.664 3.43H9.367c-.277-1.14-.945-4.844 1.012-8.145a.514.514 0 0 0-.035-.574C10.28 5.586 8.789 3.7 6.219 3.941a.507.507 0 0 0-.461.508v3.406c0 .286.23.512.512.512h.703l-1.618 2.914H4.008a1.049 1.049 0 0 0-1.02 1.309A3.798 3.798 0 0 0 0 16.293c0 2.09 1.7 3.789 3.79 3.789a3.796 3.796 0 0 0 3.737-3.172c.09.074.2.113.317.113h6.277a3.797 3.797 0 0 0 3.719 3.059 3.8 3.8 0 0 0 3.719-3.059h1.93c.28 0 .511-.23.511-.511 0-.153-.035-3.778-2.953-6zm-7.895-2.438V6.95h6.864v3.457h-4.664V8.074zM3.79 19.06a2.77 2.77 0 0 1-2.77-2.766 2.772 2.772 0 0 1 2.77-2.77 2.77 2.77 0 0 1 2.766 2.77 2.766 2.766 0 0 1-2.766 2.766zm14.05 0a2.77 2.77 0 0 1-2.769-2.766 2.772 2.772 0 0 1 2.77-2.77 2.768 2.768 0 0 1 0 5.535zM21.618 16a3.797 3.797 0 0 0-3.777-3.496A3.791 3.791 0 0 0 14.063 16H8.038l-.543-.488a3.795 3.795 0 0 0-3.437-2.996l-.207-.012h-.016l.172-.203h1.648a.51.51 0 0 0 .446-.262l2.187-3.934c.172-.308-.043-.757-.445-.757H6.777V4.94c1.27.04 2.149.727 2.535 1.106-2.316 4.254-.882 8.808-.82 9.004.07.21.266.355.485.355 0 0 3.804-.008 3.843-.02 1.399-.359 1.528-2.769 1.5-3.96h6.239c1.8 1.457 2.261 3.601 2.378 4.574zm0 0"/>
    <path d="M17.852 15.586l.695.691-.723.723-.695-.695zm-14.938.719L3.61 17l.723-.723-.695-.691zm0 0"/>
</svg>
